icons/heart-add-line.svg

<svg xmlns="http://www.w3.org/2000/svg" width="24" height="24" fill="none"><g clip-path="url(#a)"><g><path fill="#121212" d="M19 14V17H22V19H18.999L19 22H17L16.999 19H14V17H17V14H19ZM20.243 4.75698C22.505 7.02498 22.583 10.637 20.479 12.992L19.059 11.574C20.39 10.05 20.32 7.65998 18.827 6.16998C17.324 4.67098 14.907 4.60698 13.337 6.01698L12.002 7.21498L10.666 6.01798C9.09103 4.60598 6.67503 4.66798 5.17203 6.17198C3.68203 7.66198 3.60703 10.047 4.98003 11.623L13.412 20.069L12 21.485L3.52003 12.993C1.41603 10.637 1.49503 7.01898 3.75603 4.75698C6.02103 2.49298 9.64403 2.41698 12 4.52898C14.349 2.41998 17.979 2.48998 20.242 4.75698H20.243Z"/></g></g><defs><clipPath id="a"><rect width="24" height="24" fill="white"/></clipPath></defs></svg>

<svg width="24" height="24" fill="none" xmlns="http://www.w3.org/2000/svg"><g clip-path="url(#a)"><path d="M19 14v3h3v2h-3.001L19 22h-2l-.001-3H14v-2h3v-3h2Zm1.243-9.243a6 6 0 0 1 .236 8.235l-1.42-1.418c1.331-1.524 1.261-3.914-.232-5.404a4.001 4.001 0 0 0-5.49-.153l-1.335 1.198-1.336-1.197a3.999 3.999 0 0 0-5.494.154 4 4 0 0 0-.192 5.451l8.432 8.446L12 21.485l-8.48-8.492A6 6 0 0 1 12 4.529a5.998 5.998 0 0 1 8.242.228h.001Z" /></g><defs><clipPath id="a"><path fill="#fff" d="M0 0h24v24H0z"/></clipPath></defs></svg>
